packages/sources/icons/src/vitamix/calendar-line.svg

<svg width="16" height="16" viewBox="0 0 16 16" fill="none" xmlns="http://www.w3.org/2000/svg">
<path fill-rule="evenodd" clip-rule="evenodd" d="M11.3333 2.66666H14C14.3682 2.66666 14.6667 2.96514 14.6667 3.33333V14C14.6667 14.3682 14.3682 14.6667 14 14.6667H2C1.63181 14.6667 1.33334 14.3682 1.33334 14V3.33333C1.33334 2.96514 1.63181 2.66666 2 2.66666H4.66667V1.33333H6V2.66666H10V1.33333H11.3333V2.66666ZM10 3.99999H6V5.33333H4.66667V3.99999H2.66667V6.66666H13.3333V3.99999H11.3333V5.33333H10V3.99999ZM2.66667 7.99999H13.3333V13.3333H2.66667V7.99999Z" fill="#001018"/>
</svg>

<svg width="16" height="16" fill="none" xmlns="http://www.w3.org/2000/svg"><path fill-rule="evenodd" clip-rule="evenodd" d="M11.333 2.667H14c.368 0 .667.298.667.666V14a.667.667 0 0 1-.667.667H2A.667.667 0 0 1 1.333 14V3.333c0-.368.299-.666.667-.666h2.667V1.333H6v1.334h4V1.333h1.333v1.334zM10 4H6v1.333H4.667V4h-2v2.667h10.666V4h-2v1.333H10V4zM2.667 8h10.666v5.333H2.667V8z" fill="#001018"/></svg>
